X: 1
T: Orijent
O: Serbia
C: Trad.
Z:
%%MIDI channel 1
%%MIDI program 1 56
M: 4/4
K: G
M: 4/4
L: 1/8
Q: 1/4=210
K: G
G2 |: "G"~B2dc BBBG | dB=fe dddB |"C"g2~=f2 "D7"ec=fe |1 "G"dBcA BBBG :|2 "G"dBcA B2z2 |
  |: "C"~g2=ff ecfe | "G"dB=fe dddB | "D7"e2 dddBde  |1 cAcd "G"BBBG :|2 cAcd "G"~B2z2 ||
K: F
|: "C7"ECEF GB_AG | "Fm"GFEF G_A=Bc | df_ed dc=Bc  | _edc=B _AGFz |
   "C7"ECEF GB_AG | "Fm"GFEF G_A=Bc | df_ed c=B_AG | F2 z6 :|
